X:272
T:Whistling Thief
M:9/8
L:1/8
K:GMaj
gf|:edB BAB G2A|Bdd deB dgf|edB BAB G2A|Bee ef^d egf:|
def gaf g3|Bdd deB d3|efg agf edc|B2e ef^d e3|
def gaf g3|Bdd deB dga|bag agf edc|B2e ef^d e3||
